theme/img/business/txt_p.svg

<svg width="67" height="78" viewBox="0 0 67 78" fill="none" xmlns="http://www.w3.org/2000/svg">
<path d="M19.6406 77.7188H0C0.4375 74.375 0.6875 69.7188 0.75 63.75V16.7812C0.75 10.8438 0.5 5.82812 0 1.73438H18.8906V5.01562C18.8906 5.17188 18.8906 5.39062 18.8906 5.67188C18.8594 6.01562 18.8281 6.39062 18.7969 6.79688C20.9844 5.01562 23.125 3.65625 25.2188 2.71875C29.2188 0.90625 33.625 0 38.4375 0C47 0 53.7812 2.48438 58.7812 7.45312C63.9062 12.5469 66.4688 20.0156 66.4688 29.8594C66.4688 35.0781 65.5781 39.9844 63.7969 44.5781C61.7969 49.6719 58.3906 53.6875 53.5781 56.625C49.1719 59.3125 44.1094 60.6562 38.3906 60.6562C33.5469 60.6562 29.2188 59.8281 25.4062 58.1719C23.3125 57.2344 21.1094 55.75 18.7969 53.7188C18.7969 54.1875 18.8125 54.7656 18.8438 55.4531V56.25L18.8906 57.1406V63.7969C18.8906 69.5156 19.1406 74.1562 19.6406 77.7188ZM34.0312 14.4844C30.5 14.4844 27.4375 15.5469 24.8438 17.6719C21 20.8281 19.0781 25.0312 19.0781 30.2812C19.0781 34.875 20.5156 38.6562 23.3906 41.625C24.8906 43.1875 26.7031 44.3594 28.8281 45.1406C30.5469 45.7656 32.2969 46.0781 34.0781 46.0781C37.8906 46.0781 41.0156 44.875 43.4531 42.4688C46.2969 39.6562 47.7188 35.5 47.7188 30C47.7188 24.5625 46.2656 20.5156 43.3594 17.8594C40.8906 15.6094 37.7812 14.4844 34.0312 14.4844Z" fill="url(#paint0_linear_194_104)"/>
<defs>
<linearGradient id="paint0_linear_194_104" x1="-958.594" y1="24.875" x2="98.4063" y2="24.875" gradientUnits="userSpaceOnUse">
<stop stop-color="#001F63"/>
<stop offset="1" stop-color="#00E1EC"/>
</linearGradient>
</defs>
</svg>

<svg xmlns="http://www.w3.org/2000/svg" width="67" height="78" fill="none"><path fill="url(#a)" d="M19.64 77.719H0q.657-5.016.75-13.969V16.781Q.75 7.875 0 1.734h18.89v3.938q-.046.516-.093 1.125 3.28-2.671 6.422-4.078 6-2.72 13.218-2.719 12.844 0 20.344 7.453 7.688 7.641 7.688 22.406 0 7.829-2.672 14.72-3 7.64-10.219 12.046-6.61 4.032-15.187 4.031-7.266 0-12.985-2.484-3.14-1.407-6.61-4.453 0 .703.048 1.734v.797l.047.89v6.657q0 8.579.75 13.922m14.391-63.235q-5.296 0-9.187 3.188-5.766 4.734-5.766 12.61 0 6.89 4.313 11.343 2.25 2.344 5.437 3.516 2.579.937 5.25.937 5.72 0 9.375-3.61Q47.72 38.25 47.72 30q0-8.156-4.36-12.14-3.702-3.376-9.328-3.376"/><defs><linearGradient id="a" x1="-958.594" x2="98.406" y1="24.875" y2="24.875" gradientUnits="userSpaceOnUse"><stop stop-color="#001F63"/><stop offset="1" stop-color="#00E1EC"/></linearGradient></defs></svg>
